apps/ledger-live-desktop/src/renderer/images/lending-info-1.svg

<svg width="180" height="130" viewBox="0 0 180 130" fill="none" xmlns="http://www.w3.org/2000/svg">
<rect width="180" height="130" rx="4" fill="white"/>
<rect x="136" y="110" width="32" height="12" rx="2" fill="#8a80db"/>
<path d="M144.173 118H146.552V117.448H144.831V116.455H146.415V115.903H144.831V114.916H146.538V114.364H144.173V118ZM147.824 116.402C147.824 116.008 148.062 115.781 148.401 115.781C148.733 115.781 148.932 115.999 148.932 116.363V118H149.575V116.263C149.577 115.61 149.204 115.237 148.641 115.237C148.232 115.237 147.952 115.433 147.828 115.736H147.796V115.273H147.181V118H147.824V116.402ZM151.013 118.055C151.441 118.055 151.697 117.854 151.814 117.625H151.835V118H152.453V116.175C152.453 115.454 151.865 115.237 151.345 115.237C150.772 115.237 150.331 115.493 150.189 115.99L150.789 116.075C150.853 115.889 151.034 115.729 151.349 115.729C151.647 115.729 151.81 115.882 151.81 116.15V116.161C151.81 116.345 151.617 116.354 151.136 116.406C150.606 116.462 150.1 116.62 150.1 117.235C150.1 117.771 150.493 118.055 151.013 118.055ZM151.18 117.583C150.912 117.583 150.72 117.46 150.72 117.224C150.72 116.977 150.935 116.874 151.223 116.833C151.391 116.81 151.729 116.768 151.812 116.7V117.022C151.812 117.325 151.567 117.583 151.18 117.583ZM153.128 118H153.76V117.57H153.797C153.898 117.769 154.11 118.048 154.578 118.048C155.221 118.048 155.702 117.538 155.702 116.64C155.702 115.731 155.207 115.237 154.577 115.237C154.095 115.237 153.895 115.527 153.797 115.724H153.77V114.364H153.128V118ZM153.758 116.636C153.758 116.107 153.985 115.765 154.399 115.765C154.827 115.765 155.047 116.129 155.047 116.636C155.047 117.148 154.823 117.521 154.399 117.521C153.989 117.521 153.758 117.165 153.758 116.636ZM156.891 114.364H156.249V118H156.891V114.364ZM158.76 118.053C159.395 118.053 159.832 117.743 159.946 117.268L159.346 117.201C159.259 117.432 159.046 117.553 158.769 117.553C158.353 117.553 158.078 117.279 158.073 116.812H159.973V116.615C159.973 115.658 159.397 115.237 158.726 115.237C157.945 115.237 157.435 115.811 157.435 116.652C157.435 117.508 157.938 118.053 158.76 118.053ZM158.074 116.379C158.094 116.031 158.351 115.738 158.735 115.738C159.104 115.738 159.353 116.008 159.356 116.379H158.074Z" fill="white"/>
<rect x="12" y="54" width="40" height="3" rx="1.5" fill="#142533" fill-opacity="0.3"/>
<rect x="12" y="78" width="16" height="3" rx="1.5" fill="#142533" fill-opacity="0.3"/>
<rect x="90" y="54" width="64" height="3" rx="1.5" fill="#142533" fill-opacity="0.3"/>
<rect x="66" y="78" width="32" height="3" rx="1.5" fill="#142533" fill-opacity="0.3"/>
<rect x="136" y="78" width="32" height="3" rx="1.5" fill="#142533" fill-opacity="0.3"/>
<path d="M52.7173 23H57.4759V21.8956H54.0348V19.9105H57.2024V18.8061H54.0348V16.8317H57.4474V15.7273H52.7173V23ZM60.0202 19.804C60.0202 19.0156 60.4961 18.5611 61.1744 18.5611C61.8384 18.5611 62.2362 18.9979 62.2362 19.7259V23H63.5217V19.527C63.5252 18.2202 62.7795 17.4744 61.6538 17.4744C60.837 17.4744 60.2759 17.8651 60.0273 18.4723H59.9634V17.5455H58.7347V23H60.0202V19.804ZM66.3981 23.1101C67.2539 23.1101 67.7653 22.7088 67.9996 22.2507H68.0423V23H69.2781V19.3494C69.2781 17.9077 68.1026 17.4744 67.0621 17.4744C65.9151 17.4744 65.0344 17.9858 64.7504 18.9801L65.9506 19.1506C66.0785 18.7777 66.4407 18.4581 67.0692 18.4581C67.6658 18.4581 67.9925 18.7635 67.9925 19.2997V19.321C67.9925 19.6903 67.6055 19.7081 66.6431 19.8111C65.5849 19.9247 64.5728 20.2408 64.5728 21.4695C64.5728 22.5419 65.3576 23.1101 66.3981 23.1101ZM66.7319 22.1655C66.1957 22.1655 65.8121 21.9205 65.8121 21.4482C65.8121 20.9545 66.2418 20.7486 66.8171 20.6669C67.1545 20.6207 67.8292 20.5355 67.9961 20.4006V21.0433C67.9961 21.6506 67.506 22.1655 66.7319 22.1655ZM70.6275 23H71.8917V22.1406H71.9663C72.1687 22.5384 72.5913 23.0959 73.5288 23.0959C74.8143 23.0959 75.7766 22.0767 75.7766 20.2798C75.7766 18.4616 74.7859 17.4744 73.5252 17.4744C72.5629 17.4744 72.1616 18.0533 71.9663 18.4474H71.913V15.7273H70.6275V23ZM71.8881 20.2727C71.8881 19.2145 72.3427 18.5291 73.1701 18.5291C74.0259 18.5291 74.4663 19.2571 74.4663 20.2727C74.4663 21.2955 74.0188 22.0412 73.1701 22.0412C72.3498 22.0412 71.8881 21.331 71.8881 20.2727ZM78.155 15.7273H76.8695V23H78.155V15.7273ZM81.8917 23.1065C83.163 23.1065 84.0366 22.4851 84.2638 21.5369L83.0636 21.402C82.8896 21.8636 82.4634 22.1051 81.9094 22.1051C81.0785 22.1051 80.5281 21.5582 80.5174 20.6243H84.3171V20.2301C84.3171 18.3161 83.1665 17.4744 81.8242 17.4744C80.2617 17.4744 79.2425 18.6214 79.2425 20.3047C79.2425 22.0163 80.2475 23.1065 81.8917 23.1065ZM80.521 19.7578C80.56 19.0618 81.0749 18.4759 81.842 18.4759C82.5806 18.4759 83.0778 19.0156 83.0849 19.7578H80.521ZM89.4547 23.1101C90.3105 23.1101 90.8219 22.7088 91.0563 22.2507H91.0989V23H92.3347V19.3494C92.3347 17.9077 91.1593 17.4744 90.1188 17.4744C88.9718 17.4744 88.0911 17.9858 87.807 18.9801L89.0073 19.1506C89.1351 18.7777 89.4973 18.4581 90.1259 18.4581C90.7225 18.4581 91.0492 18.7635 91.0492 19.2997V19.321C91.0492 19.6903 90.6621 19.7081 89.6998 19.8111C88.6415 19.9247 87.6294 20.2408 87.6294 21.4695C87.6294 22.5419 88.4142 23.1101 89.4547 23.1101ZM89.7885 22.1655C89.2523 22.1655 88.8688 21.9205 88.8688 21.4482C88.8688 20.9545 89.2985 20.7486 89.8738 20.6669C90.2111 20.6207 90.8858 20.5355 91.0527 20.4006V21.0433C91.0527 21.6506 90.5627 22.1655 89.7885 22.1655ZM96.0066 23.1065C97.3773 23.1065 98.2509 22.2933 98.3432 21.1357H97.1145C97.0044 21.7216 96.5819 22.0589 96.0172 22.0589C95.2147 22.0589 94.6962 21.3878 94.6962 20.2727C94.6962 19.1719 95.2253 18.5114 96.0172 18.5114C96.6351 18.5114 97.0151 18.9091 97.1145 19.4347H98.3432C98.2544 18.2521 97.3311 17.4744 95.9995 17.4744C94.4015 17.4744 93.3929 18.6286 93.3929 20.294C93.3929 21.9453 94.3766 23.1065 96.0066 23.1065ZM101.778 23.1065C103.149 23.1065 104.022 22.2933 104.115 21.1357H102.886C102.776 21.7216 102.353 22.0589 101.789 22.0589C100.986 22.0589 100.468 21.3878 100.468 20.2727C100.468 19.1719 100.997 18.5114 101.789 18.5114C102.407 18.5114 102.787 18.9091 102.886 19.4347H104.115C104.026 18.2521 103.103 17.4744 101.771 17.4744C100.173 17.4744 99.1644 18.6286 99.1644 20.294C99.1644 21.9453 100.148 23.1065 101.778 23.1065ZM107.55 23.1065C109.148 23.1065 110.163 21.9808 110.163 20.294C110.163 18.6037 109.148 17.4744 107.55 17.4744C105.952 17.4744 104.936 18.6037 104.936 20.294C104.936 21.9808 105.952 23.1065 107.55 23.1065ZM107.557 22.0767C106.672 22.0767 106.239 21.2884 106.239 20.2905C106.239 19.2926 106.672 18.4936 107.557 18.4936C108.427 18.4936 108.86 19.2926 108.86 20.2905C108.86 21.2884 108.427 22.0767 107.557 22.0767ZM114.731 20.706C114.731 21.5369 114.138 21.9489 113.57 21.9489C112.952 21.9489 112.54 21.5121 112.54 20.8196V17.5455H111.254V21.0185C111.254 22.3288 112 23.071 113.072 23.071C113.889 23.071 114.464 22.6413 114.713 22.0305H114.77V23H116.016V17.5455H114.731V20.706ZM118.624 19.804C118.624 19.0156 119.1 18.5611 119.778 18.5611C120.442 18.5611 120.84 18.9979 120.84 19.7259V23H122.125V19.527C122.129 18.2202 121.383 17.4744 120.257 17.4744C119.441 17.4744 118.879 17.8651 118.631 18.4723H118.567V17.5455H117.338V23H118.624V19.804ZM126.156 17.5455H125.08V16.2386H123.794V17.5455H123.02V18.5398H123.794V21.5724C123.787 22.5987 124.533 23.103 125.499 23.0746C125.865 23.0639 126.117 22.9929 126.255 22.9467L126.039 21.9418C125.968 21.9595 125.822 21.9915 125.662 21.9915C125.339 21.9915 125.08 21.8778 125.08 21.3594V18.5398H126.156V17.5455Z" fill="black"/>
<rect x="58" y="49" width="26" height="12" rx="2" fill="#8a80db"/>
<rect x="34" y="73" width="26" height="12" rx="2" fill="#8a80db"/>
<rect x="104" y="73" width="26" height="12" rx="2" fill="#8a80db"/>
<line x1="180" y1="102.25" x2="-2.18557e-08" y2="102.25" stroke="#142533" stroke-opacity="0.1" stroke-width="0.5"/>
</svg>

<svg xmlns="http://www.w3.org/2000/svg" width="180" height="130" fill="none" viewBox="0 0 180 130"><rect width="180" height="130" fill="#fff" rx="4"/><rect width="32" height="12" x="136" y="110" fill="#8a80db" rx="2"/><path fill="#fff" d="M144.173 118h2.379v-.552h-1.721v-.993h1.584v-.552h-1.584v-.987h1.707v-.552h-2.365zm3.651-1.598c0-.394.238-.621.577-.621.332 0 .531.218.531.582V118h.643v-1.737c.002-.653-.371-1.026-.934-1.026-.409 0-.689.196-.813.499h-.032v-.463h-.615V118h.643zm3.189 1.653c.428 0 .684-.201.801-.43h.021V118h.618v-1.825c0-.721-.588-.938-1.108-.938-.573 0-1.014.256-1.156.753l.6.085c.064-.186.245-.346.56-.346.298 0 .461.153.461.421v.011c0 .184-.193.193-.674.245-.53.056-1.036.214-1.036.829 0 .536.393.82.913.82m.167-.472c-.268 0-.46-.123-.46-.359 0-.247.215-.35.503-.391.168-.023.506-.065.589-.133v.322c0 .303-.245.561-.632.561m1.948.417h.632v-.43h.037a.82.82 0 0 0 .781.478c.643 0 1.124-.51 1.124-1.408 0-.909-.495-1.403-1.125-1.403-.482 0-.682.29-.78.487h-.027v-1.36h-.642zm.63-1.364c0-.529.227-.871.641-.871.428 0 .648.364.648.871 0 .512-.224.885-.648.885-.41 0-.641-.356-.641-.885m3.133-2.272h-.642V118h.642zm1.869 3.689c.635 0 1.072-.31 1.186-.785l-.6-.067c-.087.231-.3.352-.577.352-.416 0-.691-.274-.696-.741h1.9v-.197c0-.957-.576-1.378-1.247-1.378-.781 0-1.291.574-1.291 1.415 0 .856.503 1.401 1.325 1.401m-.686-1.674c.02-.348.277-.641.661-.641.369 0 .618.27.621.641z"/><rect width="40" height="3" x="12" y="54" fill="#142533" fill-opacity=".3" rx="1.5"/><rect width="16" height="3" x="12" y="78" fill="#142533" fill-opacity=".3" rx="1.5"/><rect width="64" height="3" x="90" y="54" fill="#142533" fill-opacity=".3" rx="1.5"/><rect width="32" height="3" x="66" y="78" fill="#142533" fill-opacity=".3" rx="1.5"/><rect width="32" height="3" x="136" y="78" fill="#142533" fill-opacity=".3" rx="1.5"/><path fill="#000" d="M52.717 23h4.759v-1.104h-3.441V19.91h3.167v-1.104h-3.167v-1.974h3.412v-1.105h-4.73zm7.303-3.196c0-.788.476-1.243 1.154-1.243.664 0 1.062.437 1.062 1.165V23h1.286v-3.473c.003-1.307-.742-2.053-1.868-2.053-.817 0-1.378.391-1.627.998h-.064v-.927h-1.228V23h1.285zm6.378 3.306c.856 0 1.367-.401 1.602-.86h.042V23h1.236v-3.65c0-1.442-1.175-1.876-2.216-1.876-1.147 0-2.028.512-2.312 1.506l1.2.17c.129-.372.49-.692 1.12-.692.596 0 .923.306.923.842v.021c0 .37-.387.387-1.35.49-1.058.114-2.07.43-2.07 1.659 0 1.072.785 1.64 1.825 1.64m.334-.944c-.536 0-.92-.245-.92-.718 0-.494.43-.7 1.005-.781.338-.046 1.012-.132 1.18-.266v.642c0 .608-.491 1.123-1.265 1.123m3.895.834h1.265v-.86h.074c.203.398.625.956 1.563.956 1.285 0 2.248-1.02 2.248-2.816 0-1.818-.991-2.806-2.252-2.806-.962 0-1.363.58-1.559.973h-.053v-2.72h-1.285zm1.261-2.727c0-1.058.455-1.744 1.282-1.744.856 0 1.296.728 1.296 1.744 0 1.023-.447 1.768-1.296 1.768-.82 0-1.282-.71-1.282-1.768m6.267-4.546H76.87V23h1.285zm3.737 7.38c1.271 0 2.145-.622 2.372-1.57l-1.2-.135c-.174.462-.6.703-1.155.703-.83 0-1.38-.547-1.392-1.48h3.8v-.395c0-1.914-1.15-2.756-2.493-2.756-1.562 0-2.581 1.147-2.581 2.83 0 1.712 1.005 2.803 2.649 2.803m-1.371-3.35c.039-.695.554-1.281 1.321-1.281.739 0 1.236.54 1.243 1.282zm8.934 3.353c.856 0 1.367-.401 1.601-.86h.043V23h1.236v-3.65c0-1.442-1.176-1.876-2.216-1.876-1.147 0-2.028.512-2.312 1.506l1.2.17c.128-.372.49-.692 1.119-.692.596 0 .923.306.923.842v.021c0 .37-.387.387-1.35.49-1.058.114-2.07.43-2.07 1.659 0 1.072.785 1.64 1.826 1.64m.334-.944c-.537 0-.92-.245-.92-.718 0-.494.43-.7 1.005-.781.337-.046 1.012-.132 1.179-.266v.642c0 .608-.49 1.123-1.264 1.123m6.218.94c1.37 0 2.244-.813 2.336-1.97h-1.228c-.11.586-.533.923-1.098.923-.802 0-1.32-.671-1.32-1.786 0-1.101.528-1.762 1.32-1.762.618 0 .998.398 1.098.924h1.228c-.089-1.183-1.012-1.96-2.344-1.96-1.597 0-2.606 1.154-2.606 2.819 0 1.651.984 2.813 2.614 2.813m5.771 0c1.371 0 2.244-.813 2.337-1.97h-1.229c-.11.586-.533.923-1.097.923-.803 0-1.321-.671-1.321-1.786 0-1.101.529-1.762 1.321-1.762.618 0 .998.398 1.097.924h1.229c-.089-1.183-1.012-1.96-2.344-1.96-1.598 0-2.607 1.154-2.607 2.819 0 1.651.984 2.813 2.614 2.813m5.772 0c1.598 0 2.613-1.125 2.613-2.812 0-1.69-1.015-2.82-2.613-2.82s-2.614 1.13-2.614 2.82c0 1.687 1.016 2.813 2.614 2.813m.007-1.03c-.885 0-1.318-.788-1.318-1.785 0-.998.433-1.797 1.318-1.797.87 0 1.303.799 1.303 1.797s-.433 1.786-1.303 1.786m7.174-1.37c0 .83-.593 1.243-1.161 1.243-.618 0-1.03-.437-1.03-1.13V17.55h-1.286v3.473c0 1.31.746 2.052 1.818 2.052.817 0 1.392-.43 1.641-1.04h.057V23h1.246v-5.454h-1.285zm3.893-.902c0-.788.476-1.243 1.154-1.243.664 0 1.062.437 1.062 1.165V23h1.285v-3.473c.004-1.307-.742-2.053-1.868-2.053-.816 0-1.378.391-1.626.998h-.064v-.927h-1.229V23h1.286zm7.532-2.258h-1.076v-1.307h-1.286v1.306h-.774v.995h.774v3.032c-.007 1.027.739 1.531 1.705 1.503.366-.011.618-.082.756-.128l-.216-1.005a1.6 1.6 0 0 1-.377.05c-.323 0-.582-.114-.582-.633v-2.82h1.076z"/><rect width="26" height="12" x="58" y="49" fill="#8a80db" rx="2"/><rect width="26" height="12" x="34" y="73" fill="#8a80db" rx="2"/><rect width="26" height="12" x="104" y="73" fill="#8a80db" rx="2"/><path stroke="#142533" stroke-opacity=".1" stroke-width=".5" d="M180 102.25H0"/></svg>
